cube-scan.svg

<svg fill="currentColor" viewBox="0 0 24 24"><path d="M17 22v-2h3v-3h2v3.5c0 .39-.16.74-.46 1.04s-.65.46-1.04.46zM7 22H3.5c-.39 0-.74-.16-1.04-.46S2 20.89 2 20.5V17h2v3h3zM17 2h3.5c.39 0 .74.16 1.04.46s.46.65.46 1.04V7h-2V4h-3zM7 2v2H4v3H2V3.5c0-.39.16-.74.46-1.04S3.11 2 3.5 2zm6 15.25 4-2.3v-4.59l-4 2.3zm-1-6.33 4-2.29-4-2.35-4 2.35zm-5 4.03 4 2.3v-4.59l-4-2.3zm11.23-7.36c.5.32.77.75.77 1.32v6.32c0 .57-.27 1-.77 1.32l-5.48 3.18q-.75.48-1.5 0l-5.48-3.18c-.5-.32-.77-.75-.77-1.32V8.91c0-.57.27-1 .77-1.32l5.48-3.18c.25-.13.5-.19.75-.19s.5.06.75.19z"/></svg>

<svg  viewBox="0 0 24 24" fill="currentColor"><path  d="M17,22V20H20V17H22V20.5C22,20.89 21.84,21.24 21.54,21.54C21.24,21.84 20.89,22 20.5,22H17M7,22H3.5C3.11,22 2.76,21.84 2.46,21.54C2.16,21.24 2,20.89 2,20.5V17H4V20H7V22M17,2H20.5C20.89,2 21.24,2.16 21.54,2.46C21.84,2.76 22,3.11 22,3.5V7H20V4H17V2M7,2V4H4V7H2V3.5C2,3.11 2.16,2.76 2.46,2.46C2.76,2.16 3.11,2 3.5,2H7M13,17.25L17,14.95V10.36L13,12.66V17.25M12,10.92L16,8.63L12,6.28L8,8.63L12,10.92M7,14.95L11,17.25V12.66L7,10.36V14.95M18.23,7.59C18.73,7.91 19,8.34 19,8.91V15.23C19,15.8 18.73,16.23 18.23,16.55L12.75,19.73C12.25,20.05 11.75,20.05 11.25,19.73L5.77,16.55C5.27,16.23 5,15.8 5,15.23V8.91C5,8.34 5.27,7.91 5.77,7.59L11.25,4.41C11.5,4.28 11.75,4.22 12,4.22C12.25,4.22 12.5,4.28 12.75,4.41L18.23,7.59Z"/></svg>
